X:1
T:Title
%%score 1 2 3 4
L:1/8
Q:1/4=160
M:4/4
K:C
V:1 treble nm="Church Organ, Church Organ"
V:2 treble nm="French Horn, French Horn"
V:3 bass nm="Trombone, Trombone"
V:4 bass nm="Tuba, Tuba"
V:1
 E4 D4- | D2 E2 F4 | F4 E4 | A4 G4 | E4 D4- | D2 E2 F4 | F4 E4 | A4 G4 | G4 c4- | c2 B2 A4 | %10
w: By~Rev.~J.~B.~Dykes *||||||||||
 G4 d4 | A2 B2 G4 | D4 E2 D2 | E2 F2 G4 | c4 e4- | e2 d2 c4 |] %16
w: ||||||
V:2
 C4 C4- | C2 C2 C4 | D4 E4 | F4 E4 | C4 C4- | C2 C2 A,4 | B,4 C4 | F2 D2 E4 | E4 E4- | E2 D2 C4 | %10
w: Sweet~ flow'|* rets~ of~|the~ mar|tyr~ band,~|So~ ear|* ly~ pluck's~|by~ cru|el~ * hand;~|Like~ rose|* buds~ by~|
 E4 G4 | ^F4 D4 | B,4 C2 B,2 | C2 D2 E4 | F4 G4- | G2 F2 E4 |] %16
w: a~ tem|pest~ torn,~|As~ breaks~ *|the~ * light~|of~ sum|* mer~ morn;~|
V:3
 G,4 G,4- | G,2 G,2 A,4 | B,4 C4 | F,4 G,4 | G,4 A,4- | A,2 G,2 F,4 | G,4 G,4 | A,2 B,2 C4 | %8
 G,4 G,4- | G,2 G,2 E,4 | B,4 B,4 | C4 B,4 | G,4 G,4 | G,4[K:treble] C4 | C4 C4 | B,4 G,4 |] %16
V:4
 C,4 G,4- | G,2 G,2 G,4 | G,4 C,4 | C,4 C,4 | E,4 F,4- | F,2 E,2 D,4 | D,4 C,4 | C,4 C,4 | %8
 B,,4 A,,4- | A,,2 B,,2 C,4 | ^C,4 D,4 | D,4 G,4 | G,,4 C,4 | C,4 C,4 | A,4 G,4 | G,,4 C,4 |] %16

